; G-Code generated by Simplify3D(R) Version 4.1.2
; Aug 26, 2020 at 2:17:00 PM
; Settings Summary
;   processName,0 / 1.5 / 3.5 Z0-4.5
;   applyToModels,retraction trap v2
;   profileName,0825 (modified)
;   profileVersion,2020-08-15 01:13:46
;   baseProfile,Default(2)
;   printMaterial,
;   printQuality,
;   printExtruders,
;   extruderName,Extruder
;   extruderToolheadNumber,0
;   extruderDiameter,0.4
;   extruderAutoWidth,0
;   extruderWidth,0.4
;   extrusionMultiplier,1
;   extruderUseRetract,1
;   extruderRetractionDistance,1.5
;   extruderExtraRestartDistance,0.1
;   extruderRetractionZLift,0
;   extruderRetractionSpeed,2400
;   extruderUseCoasting,1
;   extruderCoastingDistance,0.02
;   extruderUseWipe,0
;   extruderWipeDistance,5
;   primaryExtruder,0
;   layerHeight,0.2
;   topSolidLayers,5
;   bottomSolidLayers,5
;   perimeterOutlines,3
;   printPerimetersInsideOut,1
;   startPointOption,3
;   startPointOriginX,300
;   startPointOriginY,300
;   sequentialIslands,0
;   spiralVaseMode,0
;   firstLayerHeightPercentage,160
;   firstLayerWidthPercentage,100
;   firstLayerUnderspeed,0.5
;   useRaft,0
;   raftExtruder,0
;   raftTopLayers,3
;   raftBaseLayers,2
;   raftOffset,3
;   raftSeparationDistance,0.14
;   raftTopInfill,100
;   aboveRaftSpeedMultiplier,0.3
;   useSkirt,1
;   skirtExtruder,0
;   skirtLayers,1
;   skirtOutlines,12
;   skirtOffset,0.06
;   usePrimePillar,0
;   primePillarExtruder,999
;   primePillarWidth,20
;   primePillarLocation,7
;   primePillarSpeedMultiplier,1
;   useOozeShield,0
;   oozeShieldExtruder,999
;   oozeShieldOffset,2
;   oozeShieldOutlines,3
;   oozeShieldSidewallShape,1
;   oozeShieldSidewallAngle,30
;   oozeShieldSpeedMultiplier,1
;   infillExtruder,0
;   internalInfillPattern,Fast Honeycomb
;   externalInfillPattern,Rectilinear
;   infillPercentage,40
;   outlineOverlapPercentage,20
;   infillExtrusionWidthPercentage,102
;   minInfillLength,5
;   infillLayerInterval,1
;   internalInfillAngles,0
;   overlapInternalInfillAngles,0
;   externalInfillAngles,45,-45
;   generateSupport,0
;   supportExtruder,0
;   supportInfillPercentage,40
;   supportExtraInflation,0.2
;   supportBaseLayers,0
;   denseSupportExtruder,0
;   denseSupportLayers,0
;   denseSupportInfillPercentage,70
;   supportLayerInterval,1
;   supportHorizontalPartOffset,0.3
;   supportUpperSeparationLayers,1
;   supportLowerSeparationLayers,1
;   supportType,0
;   supportGridSpacing,1.5
;   maxOverhangAngle,40
;   supportAngles,0
;   temperatureName,Extruder,Bett
;   temperatureNumber,0,0
;   temperatureSetpointCount,1,2
;   temperatureSetpointLayers,1,1,2
;   temperatureSetpointTemperatures,200,65,60
;   temperatureStabilizeAtStartup,1,1
;   temperatureHeatedBed,0,1
;   fanLayers,1,2,3,4,5
;   fanSpeeds,0,15,40,75,100
;   blipFanToFullPower,0
;   adjustSpeedForCooling,0
;   minSpeedLayerTime,23
;   minCoolingSpeedSlowdown,75
;   increaseFanForCooling,0
;   minFanLayerTime,45
;   maxCoolingFanSpeed,100
;   increaseFanForBridging,1
;   bridgingFanSpeed,100
;   use5D,1
;   relativeEdistances,0
;   allowEaxisZeroing,1
;   independentExtruderAxes,0
;   includeM10123,0
;   stickySupport,1
;   applyToolheadOffsets,0
;   gcodeXoffset,0
;   gcodeYoffset,0
;   gcodeZoffset,0
;   overrideMachineDefinition,1
;   machineTypeOverride,0
;   strokeXoverride,220
;   strokeYoverride,220
;   strokeZoverride,400
;   originOffsetXoverride,0
;   originOffsetYoverride,0
;   originOffsetZoverride,0
;   homeXdirOverride,-1
;   homeYdirOverride,-1
;   homeZdirOverride,-1
;   flipXoverride,1
;   flipYoverride,-1
;   flipZoverride,1
;   toolheadOffsets,0,0|0,0|0,0|0,0|0,0|0,0
;   overrideFirmwareConfiguration,0
;   firmwareTypeOverride,RepRap (Marlin/Repetier/Sprinter)
;   GPXconfigOverride,r2
;   baudRateOverride,115200
;   overridePrinterModels,0
;   printerModelsOverride
;   startingGcode,G28 ; Home,G29 ; Probing,M420 S; bed leveling ON ,M420 Z5; ,G1 X10 Y10 Z40 F3000 ; prime position,G1 E60 F2500 ; 60 mm prime,G92 E0 ; reset E,G1 E-3 F2000 ; 3mm retract,G92 E0 ; reset E,G4 P3000 ; 3 sek pause,M117 Stringtest ;
;   layerChangeGcode,
;   retractionGcode,
;   toolChangeGcode,
;   endingGcode,M104 S0 ; turn off extruder,M140 S0 ; turn off bed,G91 ; relative positioning,G1 Z5 ; raise Z 5 mm,G90 ; back to absolute positioning,G1 X10 Y10; ,,M84 ; disable motors,M106 S0 ; turn off cooling fan,M117 Druck fertig
;   exportFileFormat,gcode
;   celebration,0
;   celebrationSong,Star Wars
;   postProcessing,
;   defaultSpeed,2400
;   outlineUnderspeed,1
;   solidInfillUnderspeed,1
;   supportUnderspeed,0.8
;   rapidXYspeed,9000
;   rapidZspeed,1002
;   minBridgingArea,20
;   bridgingExtraInflation,0.3
;   bridgingExtrusionMultiplier,0.65
;   bridgingSpeedMultiplier,0.25
;   useFixedBridgingAngle,1
;   fixedBridgingAngle,45
;   applyBridgingToPerimeters,0
;   filamentDiameters,1.75|1.75|1.75|1.75|1.75|1.75
;   filamentPricesPerKg,200|46|46|46|46|46
;   filamentDensities,1.24|1.25|1.25|1.25|1.25|1.25
;   useMinPrintHeight,1
;   minPrintHeight,0
;   useMaxPrintHeight,1
;   maxPrintHeight,4.5
;   useDiaphragm,0
;   diaphragmLayerInterval,20
;   robustSlicing,1
;   mergeAllIntoSolid,0
;   onlyRetractWhenCrossingOutline,1
;   retractBetweenLayers,1
;   useRetractionMinTravel,0
;   retractionMinTravel,1
;   retractWhileWiping,0
;   onlyWipeOutlines,1
;   avoidCrossingOutline,1
;   maxMovementDetourFactor,20
;   toolChangeRetractionDistance,12
;   toolChangeExtraRestartDistance,-0.5
;   toolChangeRetractionSpeed,600
;   externalThinWallType,1
;   internalThinWallType,2
;   thinWallAllowedOverlapPercentage,6
;   singleExtrusionMinLength,1
;   singleExtrusionMinPrintingWidthPercentage,50
;   singleExtrusionMaxPrintingWidthPercentage,175
;   singleExtrusionEndpointExtension,0.1
;   horizontalSizeCompensation,0
G90
M82
M106 S0
M140 S65
M190 S65
M104 S200 T0
M109 S200 T0
G28 ; Home
G29 ; Probing
M420 S; bed leveling ON 
M420 Z5; 
G1 X10 Y10 Z40 F3000 ; prime position
G1 E60 F2500 ; 60 mm prime
G92 E0 ; reset E
G1 E-3 F2000 ; 3mm retract
G92 E0 ; reset E
G4 P3000 ; 3 sek pause
M117 Stringtest ;
; process 0 / 1.5 / 3.5 Z0-4.5
; layer 1, Z = 0.320
T0
G92 E0.0000
G1 E-1.5000 F2400
; feature skirt
; tool H0.320 W0.400
G1 Z0.320 F1002
G1 X128.312 Y106.559 F9000
G1 E0.1000 F2400
G92 E0.0000
G1 X119.452 Y106.559 E0.4715 F1200
G1 X119.435 Y106.542 E0.4728
G1 X98.642 Y106.828 E1.5794
G1 X98.606 Y106.829 E1.5813
G1 X91.665 Y106.818 E1.9507
G1 X88.940 Y104.089 E2.1559
G1 X88.940 Y88.889 E2.9648
G1 X91.667 Y86.160 E3.1701
G1 X100.158 Y86.151 E3.6220
G1 X119.391 Y85.888 E4.6455
G1 X119.452 Y85.827 E4.6501
G1 X128.312 Y85.827 E5.1216
G1 X131.042 Y88.557 E5.3271
G1 X131.042 Y103.829 E6.1398
G1 X128.312 Y106.559 E6.3452
G92 E0.0000
G1 E-1.5000 F2400
G1 X128.147 Y106.159 F9000
G1 E0.1000 F2400
G92 E0.0000
G1 X119.617 Y106.159 E0.4539 F1200
G1 X119.598 Y106.140 E0.4553
G1 X98.638 Y106.428 E1.5708
G1 X98.606 Y106.429 E1.5726
G1 X91.831 Y106.418 E1.9331
G1 X89.340 Y103.923 E2.1207
G1 X89.340 Y89.055 E2.9119
G1 X91.833 Y86.560 E3.0996
G1 X100.161 Y86.551 E3.5428
G1 X119.559 Y86.286 E4.5752
G1 X119.617 Y86.227 E4.5796
G1 X128.147 Y86.227 E5.0335
G1 X130.642 Y88.723 E5.2213
G1 X130.642 Y103.663 E6.0164
G1 X128.147 Y106.159 E6.2042
G92 E0.0000
G1 E-1.5000 F2400
G1 X127.981 Y105.759 F9000
G1 E0.1000 F2400
G92 E0.0000
G1 X119.783 Y105.759 E0.4363 F1200
G1 X119.762 Y105.738 E0.4379
G1 X98.635 Y106.028 E1.5622
G1 X98.605 Y106.029 E1.5638
G1 X91.997 Y106.018 E1.9155
G1 X89.740 Y103.758 E2.0855
G1 X89.740 Y89.220 E2.8591
G1 X91.999 Y86.959 E3.0291
G1 X100.164 Y86.951 E3.4637
G1 X119.727 Y86.683 E4.5048
G1 X119.783 Y86.627 E4.5091
G1 X127.981 Y86.627 E4.9453
G1 X130.242 Y88.888 E5.1155
G1 X130.242 Y103.498 E5.8929
G1 X127.981 Y105.759 E6.0631
G92 E0.0000
G1 E-1.5000 F2400
G1 X127.815 Y105.359 F9000
G1 E0.1000 F2400
G92 E0.0000
G1 X119.949 Y105.359 E0.4186 F1200
G1 X119.925 Y105.335 E0.4204
G1 X98.632 Y105.628 E1.5537
G1 X98.605 Y105.629 E1.5551
G1 X92.163 Y105.618 E1.8979
G1 X90.140 Y103.592 E2.0502
G1 X90.140 Y89.386 E2.8063
G1 X92.165 Y87.359 E2.9587
G1 X100.019 Y87.353 E3.3767
G1 X119.895 Y87.081 E4.4345
G1 X119.949 Y87.027 E4.4386
G1 X127.815 Y87.027 E4.8572
G1 X129.842 Y89.054 E5.0097
G1 X129.842 Y103.332 E5.7696
G1 X127.815 Y105.359 E5.9221
G92 E0.0000
G1 E-1.5000 F2400
G1 X127.649 Y104.959 F9000
G1 E0.1000 F2400
G92 E0.0000
G1 X120.114 Y104.959 E0.4010 F1200
G1 X120.088 Y104.933 E0.4029
G1 X98.628 Y105.228 E1.5451
G1 X98.605 Y105.229 E1.5463
G1 X92.329 Y105.219 E1.8803
G1 X90.540 Y103.427 E2.0150
G1 X90.540 Y89.551 E2.7534
G1 X92.331 Y87.759 E2.8882
G1 X99.854 Y87.752 E3.2886
G1 X99.858 Y87.756 E3.2889
G1 X120.063 Y87.479 E4.3642
G1 X120.114 Y87.427 E4.3681
G1 X127.649 Y87.427 E4.7691
G1 X129.442 Y89.220 E4.9040
G1 X129.442 Y103.166 E5.6462
G1 X127.649 Y104.959 E5.7811
G92 E0.0000
G1 E-1.5000 F2400
G1 X127.484 Y104.559 F9000
G1 E0.1000 F2400
G92 E0.0000
G1 X120.280 Y104.559 E0.3834 F1200
G1 X120.252 Y104.531 E0.3855
G1 X98.625 Y104.828 E1.5365
G1 X98.604 Y104.829 E1.5376
G1 X92.496 Y104.819 E1.8627
G1 X90.940 Y103.261 E1.9798
G1 X90.940 Y89.717 E2.7006
G1 X92.497 Y88.159 E2.8178
G1 X99.690 Y88.152 E3.2006
G1 X99.696 Y88.158 E3.2010
G1 X120.231 Y87.877 E4.2939
G1 X120.280 Y87.827 E4.2976
G1 X127.484 Y87.827 E4.6810
G1 X129.042 Y89.385 E4.7982
G1 X129.042 Y103.001 E5.5228
G1 X127.484 Y104.559 E5.6401
G92 E0.0000
G1 E-1.5000 F2400
G1 X127.318 Y104.159 F9000
G1 E0.1000 F2400
G92 E0.0000
G1 X120.446 Y104.159 E0.3657 F1200
G1 X120.415 Y104.128 E0.3680
G1 X98.621 Y104.428 E1.5279
G1 X98.604 Y104.429 E1.5288
G1 X92.662 Y104.419 E1.8451
G1 X91.340 Y103.096 E1.9446
G1 X91.340 Y89.882 E2.6477
G1 X92.663 Y88.559 E2.7473
G1 X99.526 Y88.552 E3.1125
G1 X99.534 Y88.560 E3.1132
G1 X120.399 Y88.274 E4.2236
G1 X120.446 Y88.227 E4.2271
G1 X127.318 Y88.227 E4.5929
G1 X128.642 Y89.551 E4.6925
G1 X128.642 Y102.835 E5.3994
G1 X127.318 Y104.159 E5.4990
G92 E0.0000
G1 E-1.5000 F2400
G1 X127.152 Y103.759 F9000
G1 E0.1000 F2400
G92 E0.0000
G1 X120.611 Y103.759 E0.3481 F1200
G1 X120.579 Y103.726 E0.3506
G1 X98.618 Y104.028 E1.5193
G1 X98.604 Y104.029 E1.5201
G1 X92.828 Y104.019 E1.8275
G1 X91.740 Y102.930 E1.9094
G1 X91.740 Y90.048 E2.5949
G1 X92.829 Y88.959 E2.6768
G1 X99.362 Y88.952 E3.0245
G1 X99.373 Y88.962 E3.0253
G1 X120.566 Y88.672 E4.1533
G1 X120.611 Y88.627 E4.1567
G1 X127.152 Y88.627 E4.5047
G1 X128.242 Y89.717 E4.5867
G1 X128.242 Y102.669 E5.2760
G1 X127.152 Y103.759 E5.3580
G92 E0.0000
G1 E-1.5000 F2400
G1 X126.987 Y103.359 F9000
G1 E0.1000 F2400
G92 E0.0000
G1 X120.777 Y103.359 E0.3304 F1200
G1 X120.742 Y103.324 E0.3331
G1 X98.614 Y103.629 E1.5108
G1 X98.603 Y103.629 E1.5113
G1 X92.994 Y103.620 E1.8098
G1 X92.140 Y102.765 E1.8741
G1 X92.140 Y90.214 E2.5421
G1 X92.995 Y89.358 E2.6064
G1 X99.198 Y89.352 E2.9365
G1 X99.211 Y89.365 E2.9375
G1 X120.734 Y89.070 E4.0830
G1 X120.777 Y89.027 E4.0862
G1 X126.987 Y89.027 E4.4166
G1 X127.842 Y89.882 E4.4810
G1 X127.842 Y102.504 E5.1526
G1 X126.987 Y103.359 E5.2170
G92 E0.0000
G1 E-1.5000 F2400
G1 X126.821 Y102.959 F9000
G1 E0.1000 F2400
G92 E0.0000
G1 X120.943 Y102.959 E0.3128 F1200
G1 X120.905 Y102.921 E0.3156
G1 X98.611 Y103.229 E1.5022
G1 X98.603 Y103.229 E1.5026
G1 X93.160 Y103.220 E1.7922
G1 X92.540 Y102.599 E1.8389
G1 X92.540 Y90.379 E2.4892
G1 X93.161 Y89.758 E2.5359
G1 X99.035 Y89.752 E2.8485
G1 X99.049 Y89.767 E2.8496
G1 X120.902 Y89.468 E4.0127
G1 X120.943 Y89.427 E4.0157
G1 X126.821 Y89.427 E4.3285
G1 X127.442 Y90.048 E4.3752
G1 X127.442 Y102.338 E5.0293
G1 X126.821 Y102.959 E5.0760
G92 E0.0000
G1 E-1.5000 F2400
G1 X126.655 Y102.559 F9000
G1 E0.1000 F2400
G92 E0.0000
G1 X121.108 Y102.559 E0.2952 F1200
G1 X121.069 Y102.519 E0.2982
G1 X98.607 Y102.829 E1.4936
G1 X98.602 Y102.829 E1.4939
G1 X93.326 Y102.820 E1.7746
G1 X92.940 Y102.434 E1.8037
G1 X92.940 Y90.545 E2.4364
G1 X93.327 Y90.158 E2.4655
G1 X98.871 Y90.153 E2.7605
G1 X98.888 Y90.169 E2.7617
G1 X121.070 Y89.865 E3.9423
G1 X121.109 Y89.827 E3.9452
G1 X126.655 Y89.827 E4.2404
G1 X127.042 Y90.214 E4.2695
G1 X127.042 Y102.172 E4.9059
G1 X126.655 Y102.559 E4.9350
G92 E0.0000
G1 E-1.5000 F2400
G1 X126.490 Y102.159 F9000
G1 E0.1000 F2400
G92 E0.0000
G1 X121.274 Y102.159 E0.2775 F1200
G1 X121.232 Y102.117 E0.2807
G1 X98.602 Y102.429 E1.4851
G1 X93.492 Y102.420 E1.7570
G1 X93.340 Y102.268 E1.7685
G1 X93.340 Y90.710 E2.3835
G1 X93.493 Y90.558 E2.3950
G1 X98.707 Y90.553 E2.6725
G1 X98.726 Y90.571 E2.6739
G1 X121.238 Y90.263 E3.8720
G1 X121.274 Y90.227 E3.8747
G1 X126.490 Y90.227 E4.1523
G1 X126.642 Y90.379 E4.1637
G1 X126.642 Y102.007 E4.7825
G1 X126.490 Y102.159 E4.7940
G92 E0.0000
G1 E-1.5000 F2400
; feature inner perimeter
G1 X126.182 Y101.699 F9000
G1 X126.085 Y101.699
G1 X125.382 Y100.899
G1 E0.1000 F2400
G92 E0.0000
G1 X122.382 Y100.899 E0.1596 F1200
G1 X122.382 Y100.841 E0.1627
G1 X99.587 Y101.155 E1.3759
G1 X99.587 Y101.120 E1.3777
G1 X97.600 Y101.133 E1.4835
G1 X97.600 Y101.161 E1.4849
G1 X94.600 Y101.161 E1.6446
G1 X94.600 Y91.817 E2.1418
G1 X97.614 Y91.814 E2.3022
G1 X97.614 Y91.847 E2.3039
G1 X122.382 Y91.508 E3.6221
G1 X122.382 Y91.487 E3.6232
G1 X125.382 Y91.487 E3.7828
G1 X125.382 Y100.879 E4.2826
G1 X125.382 Y100.899 F1200
G1 X125.782 Y101.299 F9000
G92 E0.0000
G1 X121.982 Y101.299 E0.2022 F1200
G1 X121.982 Y101.247 E0.2050
G1 X99.193 Y101.560 E1.4179
G1 X99.192 Y101.523 E1.4199
G1 X98.000 Y101.531 E1.4833
G1 X98.000 Y101.561 E1.4849
G1 X94.200 Y101.561 E1.6871
G1 X94.200 Y91.417 E2.2269
G1 X98.008 Y91.413 E2.4296
G1 X98.009 Y91.441 E2.4310
G1 X121.982 Y91.113 E3.7069
G1 X121.982 Y91.087 E3.7083
G1 X125.782 Y91.087 E3.9105
G1 X125.782 Y101.279 E4.4529
G1 X125.782 Y101.299 F1200
; feature outer perimeter
G1 X126.182 Y101.699 F9000
G92 E0.0000
G1 X121.582 Y101.699 E0.2448 F1200
G1 X121.582 Y101.652 E0.2473
G1 X98.798 Y101.966 E1.4599
G1 X98.798 Y101.925 E1.4620
G1 X98.400 Y101.928 E1.4832
G1 X98.400 Y101.961 E1.4849
G1 X93.800 Y101.961 E1.7297
G1 X93.800 Y91.018 E2.3120
G1 X98.403 Y91.013 E2.5570
G1 X98.403 Y91.036 E2.5582
G1 X121.582 Y90.718 E3.7918
G1 X121.582 Y90.687 E3.7934
G1 X126.182 Y90.687 E4.0382
G1 X126.182 Y101.679 E4.6232
G1 X126.182 Y101.699 F1200
; feature solid layer
G1 X124.605 Y91.807 F9000
G92 E0.0000
G1 X125.062 Y92.264 E0.0344 F1200
G1 X125.062 Y92.829 E0.0645
G1 X124.040 Y91.807 E0.1414
G1 X123.474 Y91.807 E0.1715
G1 X125.062 Y93.395 E0.2910
G1 X125.062 Y93.961 E0.3211
G1 X122.908 Y91.807 E0.4832
G1 X122.702 Y91.807 E0.4942
G1 X122.702 Y91.823 E0.4951
G1 X122.363 Y91.828 E0.5131
G1 X125.062 Y94.527 E0.7162
G1 X125.062 Y95.092 E0.7463
G1 X121.805 Y91.835 E0.9914
G1 X121.247 Y91.843 E1.0211
G1 X125.062 Y95.658 E1.3082
G1 X125.062 Y96.224 E1.3383
G1 X120.689 Y91.851 E1.6674
G1 X120.131 Y91.858 E1.6971
G1 X125.062 Y96.789 E2.0682
G1 X125.062 Y97.355 E2.0983
G1 X119.573 Y91.866 E2.5114
G1 X119.015 Y91.874 E2.5411
G1 X125.062 Y97.921 E2.9962
G1 X125.062 Y98.486 E3.0263
G1 X118.457 Y91.881 E3.5234
G1 X117.899 Y91.889 E3.5531
G1 X125.062 Y99.052 E4.0921
G1 X125.062 Y99.618 E4.1222
G1 X117.341 Y91.897 E4.7033
G1 X116.783 Y91.904 E4.7330
G1 X125.062 Y100.183 E5.3561
G1 X125.062 Y100.579 E5.3772
G1 X124.892 Y100.579 E5.3862
G1 X116.225 Y91.912 E6.0385
G1 X115.667 Y91.920 E6.0682
G1 X124.326 Y100.579 E6.7199
G1 X123.760 Y100.579 E6.7500
G1 X115.109 Y91.927 E7.4011
G1 X114.551 Y91.935 E7.4308
G1 X123.195 Y100.579 E8.0813
G1 X122.702 Y100.579 E8.1075
G1 X122.702 Y100.517 E8.1109
G1 X122.568 Y100.518 E8.1180
G1 X113.993 Y91.942 E8.7634
G1 X113.434 Y91.950 E8.7931
G1 X122.010 Y100.526 E9.4385
G1 X121.452 Y100.534 E9.4682
G1 X112.876 Y91.958 E10.1136
G1 X112.318 Y91.965 E10.1433
G1 X120.894 Y100.541 E10.7888
G1 X120.336 Y100.549 E10.8185
G1 X111.760 Y91.973 E11.4639
G1 X111.202 Y91.981 E11.4936
G1 X119.778 Y100.557 E12.1390
G1 X119.220 Y100.564 E12.1687
G1 X110.644 Y91.988 E12.8142
G1 X110.086 Y91.996 E12.8439
G1 X118.662 Y100.572 E13.4893
G1 X118.104 Y100.580 E13.5190
G1 X109.528 Y92.004 E14.1644
G1 X108.970 Y92.011 E14.1941
G1 X117.546 Y100.588 E14.8396
G1 X116.988 Y100.595 E14.8693
G1 X108.412 Y92.019 E15.5147
G1 X107.854 Y92.026 E15.5444
